static/img/icon-code-alt.svg

<svg fill="none" height="24" viewBox="0 0 24 24" width="24" xmlns="http://www.w3.org/2000/svg"><g fill="#33373d"><path d="m13.6571 4.26656c.4051.08679.663.48548.5763.8905l-3 14.00004c-.0868.405-.4855.663-.8905.5762-.40506-.0868-.66304-.4855-.57625-.8905l3.00005-14.00004c.0867-.40501.4854-.66299.8904-.5762z"/><path d="m7.53033 7.46961c.29289.29289.29289.76777 0 1.06066l-3.46967 3.46963 3.46967 3.4697c.29289.2929.29289.7678 0 1.0607s-.76777.2929-1.06066 0l-4-4c-.29289-.2929-.29289-.7678 0-1.0607l4-3.99999c.29289-.29289.76777-.29289 1.06066 0z"/><path d="m16.4697 8.53027c-.2929-.29289-.2929-.76777 0-1.06066s.7677-.29289 1.0606 0l4 3.99999c.2929.2929.2929.7678 0 1.0607l-4 4c-.2929.2929-.7677.2929-1.0606 0s-.2929-.7678 0-1.0607l3.4696-3.4697z"/></g></svg>

<svg width="24" height="24" viewBox="0 0 24 24" fill="none" xmlns="http://www.w3.org/2000/svg">
<path d="M13.6571 4.26656C14.0622 4.35335 14.3201 4.75204 14.2334 5.15706L11.2334 19.1571C11.1466 19.5621 10.7479 19.8201 10.3429 19.7333C9.93784 19.6465 9.67986 19.2478 9.76665 18.8428L12.7667 4.84276C12.8534 4.43775 13.2521 4.17977 13.6571 4.26656Z" fill="#33373D"/>
<path d="M7.53033 7.46961C7.82322 7.7625 7.82322 8.23738 7.53033 8.53027L4.06066 11.9999L7.53033 15.4696C7.82322 15.7625 7.82322 16.2374 7.53033 16.5303C7.23744 16.8232 6.76256 16.8232 6.46967 16.5303L2.46967 12.5303C2.17678 12.2374 2.17678 11.7625 2.46967 11.4696L6.46967 7.46961C6.76256 7.17672 7.23744 7.17672 7.53033 7.46961Z" fill="#33373D"/>
<path d="M16.4697 8.53027C16.1768 8.23738 16.1768 7.7625 16.4697 7.46961C16.7626 7.17672 17.2374 7.17672 17.5303 7.46961L21.5303 11.4696C21.8232 11.7625 21.8232 12.2374 21.5303 12.5303L17.5303 16.5303C17.2374 16.8232 16.7626 16.8232 16.4697 16.5303C16.1768 16.2374 16.1768 15.7625 16.4697 15.4696L19.9393 11.9999L16.4697 8.53027Z" fill="#33373D"/>
</svg>
